svgs/duotone/closed-captioning-slash.svg

<svg xmlns="http://www.w3.org/2000/svg" viewBox="0 0 640 512"><!--! Font Awesome Pro 6.3.0 by @fontawesome - https://fontawesome.com License - https://fontawesome.com/license (Commercial License) Copyright 2023 Fonticons, Inc. --><defs><style>.fa-secondary{opacity:.4}</style></defs><path class="fa-primary" d="M630.8 469.1L38.81 5.111C34.41 1.673 29.19-.0001 24.03-.0001c-7.125 0-14.19 3.158-18.91 9.189C-3.067 19.63-1.249 34.72 9.189 42.89l591.1 463.1c10.5 8.203 25.57 6.328 33.69-4.078C643.1 492.4 641.2 477.3 630.8 469.1z"/><path class="fa-secondary" d="M234.5 351.1c-24.59 0-49.16-9.359-67.88-28.08C148.5 305.8 138.5 281.6 138.5 256c0-15.09 3.841-29.46 10.38-42.58L32 121.8v294.2c0 35.35 28.65 64 64 64l393.1 .0002L296.3 328.9C278.4 343.1 256.6 351.1 234.5 351.1zM256.6 297.8L188.2 244.2C187.2 248 186.5 251.9 186.5 256c0 12.81 5 24.88 14.06 33.94C215.8 305.2 238.5 307.3 256.6 297.8zM544 31.1L96 31.1c-6.645 0-12.96 1.176-18.96 3.073l160 125.4C260.8 161 284.3 170 302.4 188.1c7.367 7.367 8.728 18.23 4.517 27.14l25.92 20.32c3.857-17.83 12.61-34.25 25.81-47.45c37.44-37.44 98.31-37.44 135.8 0c9.375 9.375 9.375 24.56 0 33.94s-24.56 9.375-33.94 0c-18.69-18.72-49.19-18.72-67.88 0c-9.062 9.062-14.06 21.13-14.06 33.94c0 6.338 1.243 12.49 3.577 18.19l35.89 28.13c14.99 2.729 30.92-.8158 42.47-12.38c9.375-9.375 24.56-9.375 33.94 0s9.375 24.56 0 33.94c-7.732 7.732-16.62 13.47-25.93 18.01l131.6 103.1C604.7 436.2 608 426.6 608 416V95.1C608 60.65 579.3 31.1 544 31.1z"/></svg>

<svg xmlns="http://www.w3.org/2000/svg" viewBox="0 0 640 512"><!-- Font Awesome Pro 6.0.0-alpha2 by @fontawesome - https://fontawesome.com License - https://fontawesome.com/license (Commercial License) --><defs><style>.fa-secondary{opacity:.4}</style></defs><path d="M234.547 351.953C209.953 351.953 185.391 342.594 166.672 323.875C148.547 305.75 138.547 281.641 138.547 256C138.547 240.912 142.389 226.537 148.932 213.416L32 121.768V416C32 451.346 60.654 480 96 480H489.061L296.271 328.896C278.449 343.986 256.627 351.953 234.547 351.953ZM256.617 297.816L188.191 244.186C187.219 248.02 186.547 251.943 186.547 256C186.547 268.812 191.547 280.875 200.609 289.938C215.801 305.154 238.504 307.342 256.617 297.816ZM544 32H96C89.355 32 83.043 33.176 77.043 35.072L237.047 160.48C260.777 161.043 284.328 170.029 302.422 188.125C309.789 195.492 311.15 206.355 306.939 215.26L332.863 235.576C336.721 217.748 345.471 201.326 358.672 188.125C396.109 150.686 456.984 150.686 494.422 188.125C503.797 197.5 503.797 212.687 494.422 222.062S469.859 231.438 460.484 222.062C441.797 203.344 411.297 203.344 392.609 222.062C383.547 231.125 378.547 243.188 378.547 256C378.547 262.338 379.789 268.486 382.123 274.186L418.02 302.32C433.014 305.049 448.937 301.504 460.484 289.937C469.859 280.562 485.047 280.562 494.422 289.937S503.797 314.5 494.422 323.875C486.689 331.607 477.809 337.344 468.494 341.881L600.08 445.016C604.701 436.232 608 426.648 608 416V96C608 60.652 579.346 32 544 32Z" class="fa-secondary"/><path d="M630.811 469.102L38.814 5.11C34.407 1.672 29.189 0.001 24.032 0.001C16.907 0.001 9.845 3.157 5.126 9.188C-3.061 19.625 -1.249 34.719 9.189 42.891L601.186 506.883C611.686 515.086 626.749 513.211 634.874 502.805C643.061 492.367 641.249 477.274 630.811 469.102Z" class="fa-primary"/></svg>
